X: 2980
T: Bass Rock, The
R: reel
M: 4/4
K: Gmajor
|:~G3 d e2 dB|A ~g3 eage|d2 ge dBGA|BGAB G ~E3|
GGdG e2 dB|A ~g3 eage|dged B3 d|1 edBA GDEF:|2 edBA GAB/c/d||
|:g3 d egge|a3 b aged|~g3 d efge|dBAB G ~E3|
[1 ~g3 d e ~g3|a3 b aged|~g3 d efge|dBAB GAB/c/d:|
[2 GABd egge|a3 b age z|bagb agez|z deB dBAE||

